melody-of-light/img/icons/icomoon/close.svg

<svg width="6" height="6" viewBox="0 0 6 6" fill="none" xmlns="http://www.w3.org/2000/svg">
<path fill-rule="evenodd" clip-rule="evenodd" d="M0.646447 0.646447C0.841709 0.451184 1.15829 0.451184 1.35355 0.646447L5.35355 4.64645C5.54882 4.84171 5.54882 5.15829 5.35355 5.35355C5.15829 5.54882 4.84171 5.54882 4.64645 5.35355L0.646447 1.35355C0.451184 1.15829 0.451184 0.841709 0.646447 0.646447Z" fill="white"/>
<path fill-rule="evenodd" clip-rule="evenodd" d="M5.35355 0.646447C5.15829 0.451184 4.84171 0.451184 4.64645 0.646447L0.646447 4.64645C0.451184 4.84171 0.451184 5.15829 0.646447 5.35355C0.841709 5.54882 1.15829 5.54882 1.35355 5.35355L5.35355 1.35355C5.54882 1.15829 5.54882 0.841709 5.35355 0.646447Z" fill="white"/>
</svg>

<svg width="6" height="6" fill="none" xmlns="http://www.w3.org/2000/svg"><path fill-rule="evenodd" clip-rule="evenodd" d="M.646.646a.5.5 0 01.708 0l4 4a.5.5 0 11-.708.708l-4-4a.5.5 0 010-.708z" fill="#fff"/><path fill-rule="evenodd" clip-rule="evenodd" d="M5.354.646a.5.5 0 00-.708 0l-4 4a.5.5 0 10.708.708l4-4a.5.5 0 000-.708z" fill="#fff"/></svg>
